X:4
T:Geissbärtli-Juiz Bb  ABC
T:Daniel Wallimann  (* 30.1.1970)
T:Dirigenten-Notiz  Edi Gasser
C:Unterwalden (CH)
%%partsbox
%P:ABC
M:4/4
R:Naturjodel
L:1/4
K:Bb 
[P:A] F>Fed | B3z || F>FBd | edB2 | F>FBd | c4 | 
F>FAc | edc2 | F>Fed | d4 | F>FBd | edB2 | 
F>FBd | c4 | F>FAc | edc2 | F>fdF | B3z ||  
M:4/4
[P:B] F/F/ | B>Bcd | ffdF/F/ | B>Bcd | ffeF/F/ | 
A>cAF/F/ | B>dBd | c>BGA | F3F/F/ | B>Bcd | ffdc/B/ | 
e>GcB | G3G | F>Bcd | F>Afd | (B4 | B2)z ||
M:4/4
[P:C] G/B/ | ed/c/BB, | G>BGG/B/ | ed/c/BG | BB_AA/B/ | 
dd/c/BB, | BB_AB/c/ | dc/B/_Ac | BBGG/B/ | 
ed/c/BB, | G>BGG/B/ | ed/c/BG | BB_AA/B/ | dd/c/BB, | 
BB_AB/c/ | d>cBd | g2zF || "_Schluss" B>Bcd | e>dce | f2ef | d4 |] 
W:
%W:Reihenfolge: A - B - C
W:notiert Edi Gasser. Angaben Daniel Wallimann
W:UJV-Naturjodelsammlung: Code-Nr: 29-02
W:http://www.naturjodler.ch/code 29.htm  (with AUDIO)
%May 28, 2018 ('Du waisch scho dass das dini Gedanke sind?!''

